icons/outline/polygon-off.svg

<!--
category: Design
tags: [shape, form, geometry, circle, line]
version: "1.66"
unicode: "f182"
-->
<svg
  xmlns="http://www.w3.org/2000/svg"
  width="24"
  height="24"
  viewBox="0 0 24 24"
  fill="none"
  stroke="currentColor"
  stroke-width="2"
  stroke-linecap="round"
  stroke-linejoin="round"
>
  <path d="M12 5m-2 0a2 2 0 1 0 4 0a2 2 0 1 0 -4 0m9 3m-2 0a2 2 0 1 0 4 0a2 2 0 1 0 -4 0m-12 3m-2 0a2 2 0 1 0 4 0a2 2 0 1 0 -4 0m12 8m-2 0a2 2 0 1 0 4 0a2 2 0 1 0 -4 0m-6.5 -9.5l1.546 -1.311m5.954 -2.689l3 1.5m1.5 3l-1.185 3.318m-1.062 2.972l-.253 .71m-2.5 .5l-7 -5m-3.5 -9.5l18 18" />
</svg>

<!--
category: Design
tags: [shape, form, geometry, circle, line]
version: "1.66"
unicode: "f182"
-->
<svg
  xmlns="http://www.w3.org/2000/svg"
  width="24"
  height="24"
  viewBox="0 0 24 24"
  fill="none"
  stroke="currentColor"
  stroke-width="2"
  stroke-linecap="round"
  stroke-linejoin="round"
>
    <path d="M12 5m-2 0a2 2 0 1 0 4 0a2 2 0 1 0 -4 0M19 8m-2 0a2 2 0 1 0 4 0a2 2 0 1 0 -4 0M5 11m-2 0a2 2 0 1 0 4 0a2 2 0 1 0 -4 0M15 19m-2 0a2 2 0 1 0 4 0a2 2 0 1 0 -4 0M6.5 9.5l1.546 -1.311M14 5.5l3 1.5M18.5 10l-1.185 3.318m-1.062 2.972l-.253 .71M13.5 17.5l-7 -5M3 3l18 18" />
</svg>
